assets/icons/lib/filter.svg

<svg class="Icon Icon-filter" width="24" height="24" viewBox="0 0 24 24" fill="none" xmlns="http://www.w3.org/2000/svg">
<path fill-rule="evenodd" clip-rule="evenodd" d="M1.0929 2.57912C1.25675 2.22596 1.61069 2 2.00001 2H22C22.3893 2 22.7433 2.22596 22.9071 2.57912C23.071 2.93229 23.015 3.34845 22.7636 3.64573L15 12.8261V21C15 21.3466 14.8206 21.6684 14.5257 21.8507C14.2309 22.0329 13.8628 22.0494 13.5528 21.8944L9.5528 19.8944C9.21402 19.725 9.00001 19.3788 9.00001 19V12.8261L1.23644 3.64573C0.985046 3.34845 0.929037 2.93229 1.0929 2.57912ZM4.15532 4L10.7636 11.8143C10.9162 11.9948 11 12.2236 11 12.46V18.382L13 19.382V12.46C13 12.2236 13.0838 11.9948 13.2364 11.8143L19.8447 4H4.15532Z" fill="currentColor"/>
</svg>

<svg class="Icon Icon-filter" viewBox="0 0 24 24" fill="none" xmlns="http://www.w3.org/2000/svg"><path fill-rule="evenodd" clip-rule="evenodd" d="M1.093 2.58A1 1 0 0 1 2 2h20a1 1 0 0 1 .764 1.646L15 12.826V21a1 1 0 0 1-1.447.894l-4-2A1 1 0 0 1 9 19v-6.174l-7.764-9.18a1 1 0 0 1-.143-1.067ZM4.155 4l6.609 7.814a1 1 0 0 1 .236.646v5.922l2 1V12.46a1 1 0 0 1 .236-.646L19.845 4H4.155Z" fill="currentColor"/></svg>
